!!!OTL: Einst lebt ich so gl&uuml;cklich! (1-41), S. 106
!!!id: K1089
**kern
*clefG2
*k[f#c#]
*D:
{8d
8e
=1
4f#
4f#
4f#
=2
8e
8f#
4g
8e
8f#
=3
4g
4a
4b
=4
2a}
=5
{8f#
8g
=6
4.a
8f#
8b
8a
=7
8a
8e
4e}
=8
{8a
8b
=9
4.cc#
8b
8a
8g
=10
8f#
8dd
4a}
=11
{8f#
8g
=12
4.a
8f#
8b
8a
=13
8a
8e
4e}
=14
{8a
8b
=15
4.cc#
8b
8a
8g
=16
2f#}
==
*-
!!!minrhy: 8
!!!meters: 3/4 ]  ZZ[5
!!!cut: Einst lebt ich so gl&uuml;cklich! (1-41), S. 106
!!!reg: Luxemburg
!!!trd: KINTZELE, Guillaume: An der Ucht, Bd. 1, Luxemburg 1926
!!!rhy1: XX  X_X_X_  XXX_XX  X_X_X_  X__
!!!rhy2: XX  X_.XXX  XXX_
!!!key: K1089  08  D 3/4 ]  ZZ[5
!!!mod: HEPTATONIK IONISCH]  AMBITUS[8
!!!kad: 52523
!!!akz: 3245_55_73_55_73_
!!!fot: 'a__b__c__b__cv_
!!!for: 'a__b__b__b__bw_
!!!fok: '/__^d_^__^d_^d_
!! PHRAS[AUFTAKTIG]
!!!fkt: Wehmut, Untreue
!!!bem: in der Quelle mit einer 2. Stimme versehen
!! KINTZELE
!! PR[42] 2K[0] 2G[2] 3K[5] 3G[0] 4A[3] 4Ü[0] 5A[2] 6K[2] 6G[3]
!! 7K[0] 7G[0] 8A[0] MEHR[0] SI[16] ABS[64] SR[2] SP[14]
!! ST[12] 2k[14] 2g[23] 3k[0] 3g[3] 4d[0] 4ü[0] 5d[2] 6k[0] 6g[0]
!! 7k[0] 7g[0] 8d[0] mehr[0] si[42] dm[-26] sr[38] sp[5]
!! 1F[3] 2F[79] 3F[4] 4F[6] LF[0] 2P[0] 3P[9] 4P[0] TRI[0] DF[5] AB[70]
!! TF[0] U3K[0] U3[0] U4[0] U4Ü[0] U5[0] U6K[0] U6[0] U7K[0] U7[2]
!! N1[9] N2K[0] N2[3] N3K[0] N3[8] N4[11] N4Ü[0] N5[32] N6K[0] N6[20]
!!!n7k: 0] N7[6] O1[9] O2K[0] O2[0] O3K[0] O3[0] HÖ[0
!!!RNB: symbol: &uuml;  = u umlaut (UTF-8: Ã¼)
